packages/foundations/assets/icons/functional/images/editing/copy_12.svg

<svg width="12" height="12" viewBox="0 0 12 12" fill="none" xmlns="http://www.w3.org/2000/svg">
<g clip-path="url(#clip0_231_184)">
<path fill-rule="evenodd" clip-rule="evenodd" d="M2.98715 4.2V9.6H6.58715C6.74491 9.60432 6.89502 9.66892 7.00662 9.78052C7.11822 9.89212 7.18282 10.0422 7.18715 10.2C7.18886 10.5403 6.97543 10.8 6.58715 10.8H2.44715C2.27245 10.7989 2.10523 10.729 1.9817 10.6054C1.85817 10.4819 1.78827 10.3147 1.78715 10.14V4.2C1.78715 3.83143 2.03058 3.60171 2.38715 3.6C2.74372 3.59828 2.98715 3.9 2.98715 4.2ZM9.48001 1.2C9.85715 1.2 10.2129 1.54543 10.2129 1.92V7.67914C10.2129 8.05028 9.87343 8.39914 9.48001 8.39914H4.94658C4.56858 8.39914 4.21286 8.04771 4.21286 7.67914V1.91914C4.21286 1.54885 4.56943 1.2 4.94658 1.2H9.48001ZM5.38715 2.4H8.98715V7.2H5.38715V2.4Z" fill="#1A1C1F"/>
</g>
<defs>
<clipPath id="clip0_231_184">
<rect width="12" height="12" fill="white"/>
</clipPath>
</defs>
</svg>

<svg xmlns="http://www.w3.org/2000/svg" width="12" height="12" fill="none"><g clip-path="url(#a)"><path fill="#1A1C1F" fill-rule="evenodd" d="M2.987 4.2v5.4h3.6a.617.617 0 0 1 .6.6c.002.34-.212.6-.6.6h-4.14a.664.664 0 0 1-.66-.66V4.2c0-.369.244-.598.6-.6.357-.002.6.3.6.6m6.493-3c.377 0 .733.345.733.72v5.76c0 .37-.34.72-.733.72H4.947c-.378 0-.734-.352-.734-.72V1.92c0-.371.356-.72.734-.72zM5.387 2.4h3.6v4.8h-3.6z" clip-rule="evenodd"/></g><defs><clipPath id="a"><path fill="#fff" d="M0 0h12v12H0z"/></clipPath></defs></svg>
